X:8954
T:La Jalousie
R:Divers
S:Madame Messager
A:Normandie
O:France
Z:transcrit par Jean Marc Henry
M:2/4
L:1/8
Q:1/4=84
K:G
ae fe|ae fe|ae fe|g/2f/2e/2d/2 e2|ae fe|ae fe|ae fe|g/2f/2e/2d/2 e2||!
d>e dA|B2  ez|ed ^cB|A A/2B/2 AA|d>e dA| B2 ez| ed =cB| A2 z2||
